FlatUX/src/svg/Commodore - Amiga-content.svg

<svg enable-background="new 0 0 256 256" viewBox="0 0 256 256" xmlns="http://www.w3.org/2000/svg"><path d="m238.727 12h-221.454c-2.916 0-5.273 2.357-5.273 5.273v200.364l21.091 26.363h205.636c2.916 0 5.273-2.357 5.273-5.273v-221.454c0-2.916-2.357-5.273-5.273-5.273zm1.273 32h-16v-12h16z" fill="#35495f"/><path d="m216 244h-156v-78.4c0-3.097 2.682-5.6 6-5.6h144c3.318 0 6 2.503 6 5.6z" fill="#2b3e51"/><path d="m36 12h184v110.2c0 3.207-2.419 5.8-5.412 5.8h-173.176c-2.993 0-5.412-2.593-5.412-5.8z" fill="#1b80bb"/><path d="m182.727 164h-105.454c-2.916 0-5.273 3.251-5.273 7.273v72.727h116v-72.727c0-4.022-2.357-7.273-5.273-7.273zm-62.727 72h-36v-64h36z" fill="#bdc1c6"/></svg>

<svg xmlns="http://www.w3.org/2000/svg" viewBox="0 0 256 256"><path fill="#35495f" d="M238.727 12H17.273A5.27 5.27 0 0 0 12 17.273v200.364L33.091 244h205.636a5.27 5.27 0 0 0 5.273-5.273V17.273A5.27 5.27 0 0 0 238.727 12M240 44h-16V32h16z"/><path fill="#2b3e51" d="M216 244H60v-78.4c0-3.097 2.682-5.6 6-5.6h144c3.318 0 6 2.503 6 5.6z"/><path fill="#1b80bb" d="M36 12h184v110.2c0 3.207-2.419 5.8-5.412 5.8H41.412c-2.993 0-5.412-2.593-5.412-5.8z"/><path fill="#bdc1c6" d="M182.727 164H77.273c-2.916 0-5.273 3.251-5.273 7.273V244h116v-72.727c0-4.022-2.357-7.273-5.273-7.273M120 236H84v-64h36z"/></svg>
